!!!!SEGMENT: pl-kk--kk-i-62--001-004_anonim--missa-sanctus.krn
!!!cenid: 17xx:2253
!!!COM: Anonim
!!!COM-rismID: pe30004985
!!!CDT:
!!!CNT:
!!!OPR: Missa
!!!OTL: Sanctus
!!!OMV: 004
!!!PDT:
!!!AGN: Sacred; Mass
!!!SMS-siglum: PL-Kk
!!!SMS-shelfmark: Kk.I.62
!!!SMS-shelfwork: 001-004 M
!!!SMS-variant:
!!!SMS-altvar:
!!!NIFC-rismSourceID: 1001157167
!!!NIFC-islandoraID: pl-kk:15700
!!!URL-pdf-islandora: https://repozytorium.nifc.pl/islandora/object/pl-kk%3A15700/datastream/PDF/view
!!!URL-scan:
!!!ONB-nifc: UWAGA: w zbiorze: 001 – Missa i 002 – Ut detus ex Agni throno.
!!!AIN: 1 alto 1 bass 1 cbass 1 empty 1 tenor 1 vox
!!!key:
**kern	**dynam	**kern	**dynam	**kern	**text	**kern	**text	**kern	**text	**dynam	**kern	**text	**dynam
*part6	*part6	*part5	*part5	*part4	*part4	*part3	*part3	*part2	*part2	*part2	*part1	*part1	*part1
*staff6	*	*staff5	*	*staff4	*staff4	*staff3	*staff3	*staff2	*staff2	*	*staff1	*staff1	*
*Ibass	*	*Icbass	*	*Iempty	*	*Itenor	*	*Ialto	*	*	*Ivox	*	*
*I"Baſso Accompagnato.	*	*I"Contra Baſso.	*	*I"Baſso.	*	*I"Tenore.	*	*I"Alto.	*	*	*I"Canto	*	*
*I'B Acc	*	*I'cb	*	*I'B	*	*I'T	*	*I'A	*	*	*I'C	*	*
*clefF4	*	*clefF4	*	*clefF4	*	*clefC4	*	*clefC3	*	*	*clefC1	*	*
*Trd0c0	*	*Trd0c0	*	*	*	*	*	*	*	*	*	*	*
*k[b-e-a-]	*	*k[b-e-a-]	*	*k[b-e-a-]	*	*k[b-e-a-]	*	*k[b-e-a-]	*	*	*k[b-e-a-]	*	*
*c:	*	*c:	*	*c:	*	*c:	*	*c:	*	*	*c:	*	*
*M3/4	*	*M3/4	*	*M3/4	*	*M3/4	*	*M3/4	*	*	*M3/4	*	*
*all\right or middle	*	*all\right or middle	*	*all\right or middle	*	*all\right or middle	*	*all\right or middle	*	*	*all\right or middle	*	*
*2\right	*	*2\right	*	*2\right	*	*2\right	*	*2\right	*	*	*2\right	*	*
=1	=1	=1	=1	=1	=1	=1	=1	=1	=1	=1	=1	=1	=1
!	!	!	!	!	!	!	!	!LO:TX:a:t=Dolce	!	!	!	!	!
!LO:TX:a:t=Lento. Dolce.	!	!LO:TX:t=P:problem=kolejność znaków&colon;BB-, A-, E-	!	!LO:TX:t=P:problem=kolejność znaków&colon;BB-, A-, E-	!	!	!	!LO:TX:t=P:problem=kolejność znaków&colon;B-, a-, e-	!	!	!LO:TX:t=P:problem=kolejność znaków&colon;b-, ee-, a-	!	!
!	!	!LO:TX:t=Sctus	!	!	!	!	!	!	!	!	!	!	!
!	!	!LO:TX:t=Lento. Dolce.	!	!	!	!	!	!	!	!	!	!	!
!	!LO:DY:t=for	!	!LO:DY:t=for	!	!	!	!	!	!	!	!	!	!
8C/L	f	4C/	f	4C/	San-	4G/	San-	4e-\	San-	.	4cc\	San-	.
8C/J	.	.	.	.	.	.	.	.	.	.	.	.	.
8E-/L	.	8E-\L	.	4C/	-ctus	4G/	-ctus	4e-\	-ctus	.	4cc\	-ctus	.
8G/J	.	8G\	.	.	.	.	.	.	.	.	.	.	.
8E-/L	.	8c\	.	4r	.	4r	.	4r	.	.	4r	.	.
8C/J	.	8c\J	.	.	.	.	.	.	.	.	.	.	.
=2	=2	=2	=2	=2	=2	=2	=2	=2	=2	=2	=2	=2	=2
*tremolo	*	*	*	*	*	*	*	*	*	*	*	*ij	*
!	!LO:DY:t=po	!	!	!	!	!	!	!	!	!	!	!	!
8c\L	p	2.r	.	2.r	.	2.r	.	(4g\	san-	.	(4ee-\	San-	.
8c\	.	.	.	.	.	.	.	.	.	.	.	.	.
8c\	.	.	.	.	.	.	.	4f\)	.	.	4dd\)	.	.
8c\	.	.	.	.	.	.	.	.	.	.	.	.	.
8c\	.	.	.	.	.	.	.	4e-\	-ctus	.	4cc\	-ctus	.
8c\J	.	.	.	.	.	.	.	.	.	.	.	.	.
*Xtremolo	*	*	*	*	*	*	*	*	*	*	*	*Xij	*
=3	=3	=3	=3	=3	=3	=3	=3	=3	=3	=3	=3	=3	=3
*	*	*	*	*	*ij	*	*ij	*	*ij	*	*	*	*
!	!LO:DY:t=for	!	!	!	!	!	!	!	!	!	!	!	!
8G/L	f	4GG/	.	4G\	San-	4d\	San-	4d\	San-	.	4bn\	S(an)-	.
8GG/J	.	.	.	.	.	.	.	.	.	.	.	.	.
8BBn/L	.	8BBn/L	.	4GG/	-ctus	4D/	-ctus	4d\	-ctus	.	4b\	-ctus	.
*	*	*	*	*	*Xij	*	*Xij	*	*Xij	*	*	*	*
8D/J	.	8D/J	.	.	.	.	.	.	.	.	.	.	.
8BB/L	.	8G\L	.	4r	.	4r	.	4r	.	.	4r	.	.
8GG/J	.	8G\J	.	.	.	.	.	.	.	.	.	.	.
!	!	!LO:LB:g=original	!	!	!	!	!	!	!	!	!	!	!
=4	=4	=4	=4	=4	=4	=4	=4	=4	=4	=4	=4	=4	=4
*tremolo	*	*	*	*	*	*	*	*	*	*	*	*	*
!	!LO:DY:t=po	!	!	!	!	!	!	!	!	!	!	!	!
8G\L	p	2.r	.	(4A-\	San-	(4f\	San-	2.r	.	.	2.r	.	.
8G\	.	.	.	.	.	.	.	.	.	.	.	.	.
8G\	.	.	.	4G\)	.	4e-\)	.	.	.	.	.	.	.
8G\	.	.	.	.	.	.	.	.	.	.	.	.	.
8G\	.	.	.	4F\	-ctus	4d\	-ctus	.	.	.	.	.	.
!	!LO:DY:t=for	!	!	!	!	!	!	!	!	!	!	!	!
8G\J	f	.	.	.	.	.	.	.	.	.	.	.	.
*Xtremolo	*	*	*	*	*	*	*	*	*	*	*	*	*
!LO:LB:g=original	!	!	!	!LO:LB:g=original	!	!LO:LB:g=original	!	!LO:LB:g=original	!	!	!	!	!
=5	=5	=5	=5	=5	=5	=5	=5	=5	=5	=5	=5	=5	=5
8C/L	.	(>8C/	.	4.C/	Do-	4.G/	Do-	4.e-\	Do-	.	4.cc\	Do-	.
8E-/	.	4E-\	.	.	.	.	.	.	.	.	.	.	.
8G/	.	.	.	.	.	.	.	.	.	.	.	.	.
8E-/	.	8C/)	.	8C/	-mi-	8G/	-mi-	8e-\	-mi-	.	8cc\	-mi-	.
!	!	!	!	!	!	!	!	!	!	!	!LO:LB:g=original	!	!
8G/	.	8E-/L	.	4C/	-nus	4G/	-nus	4e-\	-nus	.	4cc\	-nus	.
8E-/J	.	8C\J	.	.	.	.	.	.	.	.	.	.	.
=6	=6	=6	=6	=6	=6	=6	=6	=6	=6	=6	=6	=6	=6
8C/L	.	8r	.	(>4C/	De-	(4G/	De-	2e-\	De-	.	2cc\	De-	.
8C/J	.	8C/	.	.	.	.	.	.	.	.	.	.	.
8A-X\L	.	8r	.	4A-\)	.	4c\)	.	.	.	.	.	.	.
8A-\J	.	8A-X\	.	.	.	.	.	.	.	.	.	.	.
8F#X\L	.	8r	.	4F#X\	-us	4c\	-us	4e-\	-us	.	4cc\	-us	.
8F#\J	.	8F#X\	.	.	.	.	.	.	.	.	.	.	.
=7	=7	=7	=7	=7	=7	=7	=7	=7	=7	=7	=7	=7	=7
8qqG/	.	.	.	.	.	.	.	.	.	.	.	.	.
2.GG;/	.	2.GG;/	.	8.G\	Sa-	8.G/	sa-	8.e-\	Sa-	.	8.cc\	Sa-	.
.	.	.	.	16GG/	-ba-	16G/	-ba-	16d\	-ba-	.	16bn\	-ba-	.
.	.	.	.	2GG;/	-oth.	2G/	-oth	2d;\	-oth.	.	2b;\	-oth.	.
!	!	!LO:LB:g=original	!	!LO:LB:g=original	!	!	!	!	!	!	!	!	!
=8!|:	=8!|:	=8!|:	=8!|:	=8!|:	=8!|:	=8!|:	=8!|:	=8!|:	=8!|:	=8!|:	=8!|:	=8!|:	=8!|:
*	*	*k[b-e-a-]	*	*k[b-e-a-]	*	*k[b-e-a-]	*	*k[b-e-a-]	*	*	*k[b-e-a-]	*	*
*M4/4	*	*M4/4	*	*M4/4	*	*M4/4	*	*M4/4	*	*	*M4/4	*	*
*met(c)	*	*met(c)	*	*met(c)	*	*met(c)	*	*met(c)	*	*	*met(c)	*	*
!	!	!LO:TX:a:t=Molto.	!	!LO:TX:b:t=Pleni st Caeli	!	!	!	!	!	!	!	!	!
!	!	!LO:TX:b:t=Pleni	!	!LO:TX:a:t=Tutti	!	!LO:TX:b:t=Pleni st Caeli	!	!LO:TX:a:t=Allo	!	!	!LO:TX:a:t=Allo	!	!
!LO:TX:a:t=Allo Molto.	!	!LO:TX:a:t=Allo	!	!LO:TX:a:t=Allo	!	!LO:TX:a:t=Allo	!	!LO:TX:t=P:problem=kolejność znaków&colon;B-, e-, a-	!	!	!LO:TX:t=P:problem=kolejność znaków&colon;b-, ee-, a-	!	!
!	!	!	!	!LO:TX:t=P:problem=kolejność znaków&colon;BB-, A-, E-	!	!LO:TX:t=P:problem=niejasny zapis taktu	!	!LO:TX:t=P:problem=niejasny zapis repetycji	!	!LO:DY:b	!	!	!
!	!LO:DY:t=fr	!	!LO:DY:t=fr	!LO:TX:t=P:problem=niejasny zapis taktu	!	!	!	!	!	!	!	!	!
4E-X\	f	4E-X\	f	0r	.	1r	.	1r	.	f	4b-\	Ple-	f
4E-\	.	4E-\	.	.	.	.	.	.	.	.	(16b-\LL	-ni	.
.	.	.	.	.	.	.	.	.	.	.	16cc\JJ	.	.
.	.	.	.	.	.	.	.	.	.	.	16b-\LL	s(un)t	.
.	.	.	.	.	.	.	.	.	.	.	16cc\JJ)	.	.
4E-\	.	4E-\	.	.	.	.	.	.	.	.	8b-\L	Cae-	.
.	.	.	.	.	.	.	.	.	.	.	8g\J	.	.
4BB-X/	.	4BB-X/	.	.	.	.	.	.	.	.	8a-/L	-li	.
.	.	.	.	.	.	.	.	.	.	.	8f/J	.	.
!LO:LB:g=original	!	!	!	!	!	!	!	!	!	!	!LO:LB:g=original	!	!
=9	=9	=9	=9	=9-	=9	=9	=9	=9	=9	=9	=9	=9	=9
!	!	!	!	!	!	!	!	!	!	!	!LO:TX:a:t=dis	!	!
4E-\	.	4E-\	.	.	.	4B-\	Ple-	4g\	Ple-	.	4e-/	ple-	.
!	!	!	!	!	!	!LO:LB:g=original	!	!LO:LB:g=original	!	!	!	!	!
4E-\	.	4E-\	.	.	.	(16B-\LL	-ni	(16g\LL	-ni	.	8e-/	-ni	.
.	.	.	.	.	.	16c\JJ	.	16a-\JJ	.	.	.	.	.
.	.	.	.	.	.	16B-\LL	sunt	16g\LL	sunt	.	8e-/	s(un)t	.
.	.	.	.	.	.	16c\JJ)	.	16a-\JJ)	.	.	.	.	.
4E-\	.	4E-\	.	.	.	(8B-/L	Cae-	(8g\L	Cae-	.	4e-/	cae-	.
.	.	.	.	.	.	8G/J)	.	8e-\J	.	.	.	.	.
4BB-/	.	4BB-/	.	.	.	(8A-/L	-li	8f\L	-li	.	4e-/	-li	.
!	!	!	!	!	!	!	!	!LO:TX:t=P:problem=kreska zamykająca repetycję	!	!	!	!	!
.	.	.	.	.	.	8F/J)	.	8d\J)	.	.	.	.	.
=10	=10	=10	=10	=10	=10	=10	=10	=10	=10	=10	=10	=10	=10
!	!	!	!	!	!	!LO:TX:a:t=dis	!	!LO:TX:a:t=dis	!	!	!	!	!
8E-\L	.	8E-\L	.	4G\	Ple-	4E-/	Cae-	4e-\	Cae-	.	4b-\	Cae-	.
8E-\	.	8E-\	.	.	.	.	.	.	.	.	.	.	.
8E-\	.	8E-\	.	(16G\LL	-ni	8E-/	-li	8e-\	-li	.	(16b-\LL	-li	.
.	.	.	.	16A-\JJ	.	.	.	.	.	.	16cc\JJ	.	.
8E-\J	.	8E-\J	.	16G\LL	sunt	8E-/	et	8e-\	et	.	16b-\LL	et	.
.	.	.	.	16A-\JJ)	.	.	.	.	.	.	16cc\JJ)	.	.
4E-\	.	4E-\	.	8G\L	Cae-	4E-/	ter-	4e-\	ter-	.	(8b-\L	ter-	.
.	.	.	.	8E-\J	.	.	.	.	.	.	8g\J)	.	.
4BB-/	.	4BB-/	.	8F/L	-li	4E-/	-ra	4e-\	-ra	.	(8a-/L	-ra	.
.	.	.	.	8BB-/J	.	.	.	.	.	.	8f/J)	.	.
=11	=11	=11	=11	=11	=11	=11	=11	=11	=11	=11	=11	=11	=11
8.E-\L	.	8.E-\L	.	8.E-\	Glo-	8.B-\	Glo-	8.g\	Glo-	.	8.g\	Glo-	.
16E-\Jk	.	16E-\Jk	.	16E-\	-ri-	16B-\	-ri-	16g\	-ri-	.	16b-\	-ri-	.
8G\L	.	8G\L	.	4E-\	-a	4B-\	-a	4g\	-a	.	4ee-\	-a	.
8E-\J	.	8E-\J	.	.	.	.	.	.	.	.	.	.	.
*	*	*	*	*	*	*	*ij	*	*	*	*	*ij	*
!	!	!LO:LB:g=original	!	!	!	!	!	!	!	!	!	!	!
8.BB-/L	.	8.BB-/L	.	8.BB-/	Glo-	8.B-\	Glo-	8.a-\	Glo-	.	8.dd\	Glo-	.
16BB-/Jk	.	16BB-/Jk	.	16BB-/	-ri-	16B-\	-ri-	16a-\	-ri-	.	16ee-\	-ri-	.
!	!	!	!	!LO:LB:g=original	!	!	!	!	!	!	!	!	!
8D/L	.	8D/L	.	4BB-/	-a	4B-\	-a	4a-\	-a	.	4ff\	-a	.
*	*	*	*	*	*	*	*Xij	*	*	*	*	*Xij	*
8BB-/J	.	8BB-/J	.	.	.	.	.	.	.	.	.	.	.
!	!	!	!	!	!	!LO:PB:g=original	!	!	!	!	!LO:PB:g=original	!	!
=12	=12	=12	=12	=12	=12	=12	=12	=12	=12	=12	=12	=12	=12
4E-\	.	4E-\	.	8E-\	Glo-	8B-\	Glo-	8g\	Glo-	.	(16ee-\LL	Glo-	.
.	.	.	.	.	.	.	.	.	.	.	16b-\JJ)	.	.
.	.	.	.	16E-\	-ri-	16B-\	-ri-	16a-\	-ri-	.	16cc\	-ri-	.
.	.	.	.	16E-\	-a	16B-\	-a	16f\	-a	.	16a-\	-a	.
8E-/L	.	8E-/L	.	4BB-/	tu-	4B-\	tu-	8e-\L	tu-	.	8g/L	tu-	.
!	!	!	!	!	!	!	!	!LO:TX:a:t=f	!	!	!	!	!
8BB-/J	.	8BB-/J	.	.	.	.	.	8f\J	.	.	8f/J	.	.
!LO:LB:g=original	!	!	!	!	!	!	!	!LO:TX:a:t=g	!	!	!	!	!
4EE-/	.	4EE-/	.	4E-\	-a.	4B-\	-a	4g\	-a	.	4e-/	-a	.
4r	.	4r	.	4r	.	4r	.	4r	.	.	4r	.	.
=13:|!	=13:|!	=13:|!	=13:|!	=13:|!	=13:|!	=13:|!	=13:|!	=13:|!	=13:|!	=13:|!	=13:|!	=13:|!	=13:|!
*k[b-e-]	*	*k[b-e-]	*	*k[b-e-a-]	*	*k[b-e-]	*	*k[b-e-]	*	*	*k[b-e-]	*	*
*M3/4	*	*M3/4	*	*M3/4	*	*M3/4	*	*M3/4	*	*	*M3/4	*	*
!	!	!LO:TX:a:t=Allo.	!	!	!	!	!	!	!	!	!LO:TX:a:t=Allo.	!	!
!	!LO:DY:t=fr	!LO:TX:b:t=Osanna	!LO:DY:t=fr	!	!	!	!	!LO:TX:a:t=Allo.	!	!	!LO:TX:t=P:problem=kolejność znaków&colon;b-, ee-,	!	!
8C/L	f	8C/L	f	4C/	O-	4G/	O-	4e-\	O-	.	4cc\	O-	.
8C/	.	8C/J	.	.	.	.	.	.	.	.	.	.	.
8E-/	.	8E-/L	.	4E-\	-san-	4G/	-san-	4e-\	-san-	.	4cc\	-san-	.
8E-/	.	8E-\J	.	.	.	.	.	.	.	.	.	.	.
8C/	.	8C/L	.	4C/	-na	4G/	-na	4e-\	-na	.	4cc\	-na	.
8C/J	.	8C/J	.	.	.	.	.	.	.	.	.	.	.
!	!	!LO:LB:g=original	!	!LO:LB:g=original	!	!	!	!LO:LB:g=original	!	!	!	!	!
=14	=14	=14	=14	=14	=14	=14	=14	=14	=14	=14	=14	=14	=14
4D\	.	4D\	.	(4D\	in	2d\	in	2f\	in	.	2bn\	in	.
4G\	.	4G\	.	4G\)	.	.	.	.	.	.	.	.	.
4GG/	.	4GG/	.	4GG/	ex-	4d\	ex-	4f\	ex-	.	4b\	ex-	.
=15	=15	=15	=15	=15	=15	=15	=15	=15	=15	=15	=15	=15	=15
.	.	8qqC/	.	.	.	.	.	.	.	.	.	.	.
*	*	*tremolo	*	*	*	*	*	*	*	*	*	*	*
8C\L	.	8c\L	.	(>4C/	-cel-	2.e-\	-cel-	2.g\	-cel-	.	2.cc\	-cel-	.
8E-\J	.	8c\	.	.	.	.	.	.	.	.	.	.	.
8G\L	.	8c\	.	4E-\	.	.	.	.	.	.	.	.	.
8c\	.	8c\	.	.	.	.	.	.	.	.	.	.	.
8c\	.	8c\	.	4C/)	.	.	.	.	.	.	.	.	.
8c\J	.	8c\J	.	.	.	.	.	.	.	.	.	.	.
*	*	*Xtremolo	*	*	*	*	*	*	*	*	*	*	*
!	!	!	!	!	!	!	!	!	!	!	!LO:LB:g=original	!	!
=16	=16	=16	=16	=16	=16	=16	=16	=16	=16	=16	=16	=16	=16
8Bn/L	.	8GG/L	.	4GG/	-sis	4d\	-sis	4g\	-sis	.	4b-\	-sis	.
8G/J	.	8D/J	.	.	.	.	.	.	.	.	.	.	.
*	*	*tremolo	*	*	*	*	*	*	*	*	*	*	*
!	!	!	!	!	!	!LO:LB:g=original	!	!	!	!	!	!	!
8D/L	.	8G\L	.	4r	.	4r	.	4r	.	.	4r	.	.
8BBn/J	.	8G\	.	.	.	.	.	.	.	.	.	.	.
!LO:LB:g=original	!	!	!	!	!	!	!	!	!	!	!	!	!
4GG/	.	8G\	.	4r	.	4r	.	4r	.	.	4r	.	.
.	.	8G\J	.	.	.	.	.	.	.	.	.	.	.
*	*	*Xtremolo	*	*	*	*	*	*	*	*	*	*	*
=17	=17	=17	=17	=17	=17	=17	=17	=17	=17	=17	=17	=17	=17
4AA-X/	.	8FF/	.	4A-\	O-	4Bn\	O-	4f\	O-	.	4dd\	O-	.
.	.	8r	.	.	.	.	.	.	.	.	.	.	.
4F\	.	8F\	.	4F\	-san-	4B\	-san-	4f\	-san-	.	4dd\	-san-	.
.	.	8r	.	.	.	.	.	.	.	.	.	.	.
4D\	.	8GG/	.	4D\	-na	4B\	-na	4f\	-na	.	4dd\	-na	.
.	.	8ryy	.	.	.	.	.	.	.	.	.	.	.
=18	=18	=18	=18	=18	=18	=18	=18	=18	=18	=18	=18	=18	=18
!LO:TX:t=P:problem=mixed beam	!	!	!	!	!	!	!	!	!	!	!	!	!
8C/L	.	8C/L	.	2C/	in	2c\	in	(4g\	in	.	(4ee-\	in	.
8E-/	.	8E-/J	.	.	.	.	.	.	.	.	.	.	.
8G/	.	8C/L	.	.	.	.	.	4f\)	.	.	4dd\)	.	.
8E-/	.	8E-/J	.	.	.	.	.	.	.	.	.	.	.
!	!	!LO:LB:g=original	!	!	!	!	!	!	!	!	!	!	!
8C/	.	4C/	.	4E-\	ex-	4G/	ex-	4e-\	ex-	.	4cc\	ex-	.
8c\J	.	.	.	.	.	.	.	.	.	.	.	.	.
!	!	!	!	!LO:LB:g=original	!	!	!	!	!	!	!	!	!
=19	=19	=19	=19	=19	=19	=19	=19	=19	=19	=19	=19	=19	=19
!LO:TX:t=P:problem=mixed beam	!	!	!	!	!	!	!	!	!	!	!	!	!
8A\L	.	4F\	.	(4F\	-cel-	4A/	-cel-	(4f\	-cel-	.	(4dd\	-cel-	.
8A\	.	.	.	.	.	.	.	.	.	.	.	.	.
8G\	.	4G\	.	4G\)	.	2G/	.	4e-\	.	.	4cc\	.	.
8G\	.	.	.	.	.	.	.	.	.	.	.	.	.
8GG/	.	4GG/	.	4GG/	.	.	.	4d\)	.	.	4bn\)	.	.
8GG/J	.	.	.	.	.	.	.	.	.	.	.	.	.
=20	=20	=20	=20	=20	=20	=20	=20	=20	=20	=20	=20	=20	=20
8C/L	.	8C/L	.	4C/	-sis	4G/	-sis	4e-\	-sis	.	4cc\	sis	.
8E-/J	.	8E-/J	.	.	.	.	.	.	.	.	.	.	.
8G/L	.	4C/	.	4r	.	4r	.	4r	.	.	4r	.	.
8E-/J	.	.	.	.	.	.	.	.	.	.	.	.	.
8C/L	.	4C/	.	4r	.	4r	.	4r	.	.	4r	.	.
8G/J	.	.	.	.	.	.	.	.	.	.	.	.	.
!LO:PB:g=original	!	!	!	!	!	!	!	!LO:LB:g=original	!	!	!	!	!
=21	=21	=21	=21	=21	=21	=21	=21	=21	=21	=21	=21	=21	=21
!LO:TX:t=P:problem=mixed beam	!	!	!	!	!	!	!	!	!	!	!	!	!
8C/L	.	8C/L	.	2C/	in	2c\	in	2a-X\	in	.	2cc\	in	.
8c\J	.	8G/J	.	.	.	.	.	.	.	.	.	.	.
*tremolo	*	*tremolo	*	*	*	*	*	*	*	*	*	*	*
8c\L	.	8c\L	.	.	.	.	.	.	.	.	.	.	.
8c\	.	8c\	.	.	.	.	.	.	.	.	.	.	.
8c\	.	8c\	.	4C/	ex-	4c\	ex-	4g\	ex-	.	4b-X\	ex-	.
8c\J	.	8c\J	.	.	.	.	.	.	.	.	.	.	.
*Xtremolo	*	*Xtremolo	*	*	*	*	*	*	*	*	*	*	*
=22	=22	=22	=22	=22	=22	=22	=22	=22	=22	=22	=22	=22	=22
*	*	*tremolo	*	*	*	*	*	*	*	*	*	*	*
8F/L	.	8c\L	.	2.C/	-cel-	2.c\	-cel-	2.f\	-cel-	.	2.a-X\	-cel-	.
8C/J	.	8c\	.	.	.	.	.	.	.	.	.	.	.
8F/L	.	8c\	.	.	.	.	.	.	.	.	.	.	.
8C/J	.	8c\	.	.	.	.	.	.	.	.	.	.	.
8F/L	.	8c\	.	.	.	.	.	.	.	.	.	.	.
8C/J	.	8c\J	.	.	.	.	.	.	.	.	.	.	.
*	*	*Xtremolo	*	*	*	*	*	*	*	*	*	*	*
=23	=23	=23	=23	=23	=23	=23	=23	=23	=23	=23	=23	=23	=23
4C/	.	4C/	.	4C/	-sis.	4c\	-sis	4en\	-sis.	.	4g\	-sis	.
4r	.	4r	.	4r	.	4r	.	4r	.	.	4r	.	.
4r	.	4ryy	.	4r	.	4r	.	4r	.	.	4r	.	.
==	==	==	==	==	==	==	==	==	==	==	==	==	==
*-	*-	*-	*-	*-	*-	*-	*-	*-	*-	*-	*-	*-	*-
!!!system-decoration: [(s1,s2,s3,s4)][(s5,s6)]
!!!RDF**kern: > = above
!!!RDF**kern: < = below
!!!ENC: Kamil Watkowski
!!!END: 2021-08-04
!!!YEC: Copyright 2022 Narodowy Instytut Fryderyka Chopina (https://polishscores.org)
!!!YEM: Licence CC BY 4.0 (https://creativecommons.org/licenses/by/4.0)
